svgs/swift_backup.svg

<svg xmlns="http://www.w3.org/2000/svg" width="192" height="192" fill="none" xmlns:v="https://vecta.io/nano"><path d="M96 170.171l-66-42V76l66 42v52.171zm0 0l66-42V106l-42.429-27m0 0L162 52V22H30l66 42 23.571 15z" stroke="#000" stroke-width="12" stroke-linejoin="round"/></svg>

<svg width="192" height="192" viewBox="0 0 192 192" fill="none" xmlns="http://www.w3.org/2000/svg">
<path d="M96 170.171L30 128.171V76L96 118V170.171ZM96 170.171L162 128.171V106L119.571 79M119.571 79L162 52V22H30L96 64L119.571 79Z" stroke="black" stroke-width="12" stroke-linejoin="round"/>
</svg>
